X: 36441
T: Seasick Dee
R: slip jig
M: 9/8
K: Dmajor
M:7/8
|:"D"D2 AD FGA|"G"G2 GA GFG|"Bm"GA dA cde|"A"{e}dc AG FGE|
"D"D2 AA FGA|"G"G2 GA GFG|"Bm"GA dA cde|"A"{e}dc AG FGE:|
|:"D"D2 d2 def|"Em"e2 ef {f}edc|"Bm"A2 dA cde|"A"{e}dc AG FGE|"D"D2 d2 def|
"Em"e2 ef {f}edc|1 "Bm"da af fge|"A"ef fd edc:|2 "Bm"da a/a/a agg|"A"gf f/f/f edd||

